usr/share/icons/biglinux-icons-material/24/actions/chronometer-pause.svg

<svg xmlns="http://www.w3.org/2000/svg" viewBox="0 0 24 24">
  <defs id="defs3051">
    <style type="text/css" id="current-color-scheme">
      .ColorScheme-Text {
        color:#dedede;
      }
      </style>
  </defs>
 <path style="fill:currentColor;fill-opacity:1;stroke:none" 
     d="M 7.8769531 4 C 6.2125201 4.856171 4.856173 6.2125201 4 7.8769531 L 4 8 L 4.921875 8.3066406 C 5.676479 6.8567456 6.8567456 5.676479 8.3066406 4.921875 L 8 4 L 7.8769531 4 z M 16.005859 4 L 15.699219 4.921875 C 17.149109 5.676485 18.329374 6.8567506 19.083984 8.3066406 L 20.005859 8 L 20.005859 7.8769531 C 19.149689 6.2125231 17.793336 4.856173 16.128906 4 L 16.005859 4 z M 12 6 C 8.122005 6 5 9.122005 5 13 C 5 16.877995 8.122005 20 12 20 C 15.877995 20 19 16.877995 19 13 C 19 9.122005 15.877995 6 12 6 z M 12 7 C 15.323996 7 18 9.676004 18 13 C 18 16.323996 15.323996 19 12 19 C 8.676004 19 6 16.323996 6 13 C 6 9.676004 8.676004 7 12 7 z M 8.9980469 10.001953 L 8.9980469 16.001953 L 10.998047 16.001953 L 10.998047 10.001953 L 8.9980469 10.001953 z M 13.005859 10.001953 L 13.005859 16.001953 L 15.005859 16.001953 L 15.005859 10.001953 L 13.005859 10.001953 z "
     class="ColorScheme-Text"
     />
</svg>

<svg xmlns="http://www.w3.org/2000/svg" viewBox="0 0 24 24"><path d="M7.877 4A8.98 8.98 0 0 0 4 7.877V8l.922.307a7.952 7.952 0 0 1 3.385-3.385L8 4h-.123zm8.129 0-.307.922a7.952 7.952 0 0 1 3.385 3.385L20.006 8v-.123A8.98 8.98 0 0 0 16.129 4h-.123zM12 6c-3.878 0-7 3.122-7 7s3.122 7 7 7 7-3.122 7-7-3.122-7-7-7zm0 1c3.324 0 6 2.676 6 6s-2.676 6-6 6-6-2.676-6-6 2.676-6 6-6zm-3.002 3.002v6h2v-6h-2zm4.008 0v6h2v-6h-2z" style="fill:currentColor;fill-opacity:1;stroke:none;color:#dedede"/></svg>
